public/logos/N4.svg

<?xml version="1.0" encoding="UTF-8"?>
<svg xmlns="http://www.w3.org/2000/svg" xmlns:xlink="http://www.w3.org/1999/xlink" width="176pt" height="26.69pt" viewBox="0 0 176 26.69" version="1.1">
<defs>
<clipPath id="clip1">
  <path d="M 0 0 L 98 0 L 98 26.691406 L 0 26.691406 Z M 0 0 "/>
</clipPath>
</defs>
<g id="surface1">
<path style=" stroke:none;fill-rule:nonzero;fill:rgb(6.266785%,5.734253%,5.047607%);fill-opacity:1;" d="M 110.511719 16.015625 L 104.480469 7.0625 L 104.480469 16.015625 L 103.183594 16.015625 L 103.183594 5.03125 L 104.773438 5.03125 L 110.808594 14.03125 L 110.808594 5.03125 L 112.101562 5.03125 L 112.101562 16.015625 Z M 114.003906 11.917969 C 114.003906 9.621094 115.433594 7.652344 118.300781 7.652344 C 121.171875 7.652344 122.597656 9.621094 122.597656 11.917969 C 122.597656 14.210938 121.171875 16.179688 118.300781 16.179688 C 115.433594 16.179688 114.003906 14.210938 114.003906 11.917969 Z M 115.285156 11.917969 C 115.285156 13.671875 116.300781 15.148438 118.300781 15.148438 C 120.300781 15.148438 121.316406 13.671875 121.316406 11.917969 C 121.316406 10.210938 120.300781 8.6875 118.300781 8.6875 C 116.300781 8.6875 115.285156 10.210938 115.285156 11.917969 Z M 125.730469 8.933594 C 125.746094 8.933594 125.746094 8.949219 125.761719 8.949219 C 126.875 8.210938 127.941406 7.652344 129.320312 7.652344 L 129.320312 8.832031 C 128.367188 8.832031 126.957031 9.261719 125.730469 10.015625 L 125.730469 16.015625 L 124.496094 16.015625 L 124.496094 7.816406 L 125.730469 7.816406 Z M 136.828125 14.410156 L 136.828125 9.226562 C 135.941406 8.882812 135.140625 8.753906 134.386719 8.753906 C 132.730469 8.753906 131.335938 9.882812 131.335938 11.964844 C 131.335938 14.082031 132.730469 15.148438 134.417969 15.148438 C 135.171875 15.148438 135.910156 14.949219 136.828125 14.410156 Z M 138.058594 5.03125 L 138.058594 16.015625 L 136.828125 16.015625 L 136.828125 15.359375 L 136.796875 15.34375 C 135.941406 15.964844 135.023438 16.179688 134.15625 16.179688 C 131.46875 16.179688 130.074219 14.261719 130.074219 11.964844 C 130.074219 9.554688 131.550781 7.652344 134.222656 7.652344 C 135.089844 7.652344 135.976562 7.851562 136.796875 8.160156 L 136.828125 8.144531 L 136.828125 5.03125 Z M 144.09375 16.082031 L 142.484375 16.082031 L 139.402344 7.816406 L 140.796875 7.816406 L 143.289062 14.882812 L 145.746094 7.816406 L 147.140625 7.816406 L 149.652344 14.882812 L 152.09375 7.816406 L 153.488281 7.816406 L 150.453125 16.082031 L 148.847656 16.082031 L 146.421875 9.671875 Z M 154.832031 7.816406 L 156.0625 7.816406 L 156.0625 16.015625 L 154.832031 16.015625 Z M 159.519531 8.914062 L 159.554688 8.933594 C 160.75 8.195312 161.832031 7.652344 163.210938 7.652344 C 165.292969 7.652344 166.113281 8.800781 166.113281 10.652344 L 166.113281 16.015625 L 164.882812 16.015625 L 164.882812 10.753906 C 164.882812 9.324219 164.195312 8.753906 162.800781 8.753906 C 161.832031 8.753906 160.75 9.261719 159.519531 10 L 159.519531 16.015625 L 158.292969 16.015625 L 158.292969 7.816406 L 159.519531 7.816406 Z M 174.769531 14.410156 L 174.769531 9.226562 C 173.886719 8.882812 173.082031 8.753906 172.328125 8.753906 C 170.671875 8.753906 169.277344 9.882812 169.277344 11.964844 C 169.277344 14.082031 170.671875 15.148438 172.359375 15.148438 C 173.113281 15.148438 173.851562 14.949219 174.769531 14.410156 Z M 176 5.03125 L 176 16.015625 L 174.769531 16.015625 L 174.769531 15.359375 L 174.738281 15.34375 C 173.886719 15.964844 172.96875 16.179688 172.097656 16.179688 C 169.40625 16.179688 168.015625 14.261719 168.015625 11.964844 C 168.015625 9.554688 169.488281 7.652344 172.164062 7.652344 C 173.03125 7.652344 173.917969 7.851562 174.738281 8.160156 L 174.769531 8.144531 L 174.769531 5.03125 Z M 154.835938 5.03125 L 156.0625 5.03125 L 156.0625 6.609375 L 154.835938 6.609375 Z M 114.664062 19.574219 L 115.433594 19.574219 L 115.433594 20.339844 L 114.664062 20.339844 Z M 107.21875 19.574219 L 107.984375 19.574219 L 107.984375 20.339844 L 107.21875 20.339844 Z M 104.394531 19.574219 L 106.410156 24.910156 L 105.527344 24.910156 L 105.035156 23.542969 L 102.8125 23.542969 L 102.316406 24.910156 L 101.429688 24.910156 L 103.453125 19.574219 Z M 103.9375 20.492188 L 103.058594 22.871094 L 104.808594 22.871094 Z M 107.21875 20.957031 L 107.984375 20.957031 L 107.984375 24.910156 L 107.21875 24.910156 Z M 110.039062 21.488281 C 110.046875 21.488281 110.046875 21.496094 110.058594 21.496094 C 110.554688 21.164062 111.035156 20.878906 111.699219 20.878906 L 111.699219 21.597656 C 111.25 21.597656 110.5625 21.820312 110.039062 22.136719 L 110.039062 24.910156 L 109.28125 24.910156 L 109.28125 20.957031 L 110.039062 20.957031 Z M 112.601562 19.574219 L 113.367188 19.574219 L 113.367188 24.910156 L 112.601562 24.910156 Z M 114.664062 20.957031 L 115.433594 20.957031 L 115.433594 24.910156 L 114.664062 24.910156 Z M 117.496094 21.488281 L 117.511719 21.496094 C 118.023438 21.15625 118.523438 20.878906 119.1875 20.878906 C 120.191406 20.878906 120.597656 21.433594 120.597656 22.363281 L 120.597656 24.910156 L 119.828125 24.910156 L 119.828125 22.429688 C 119.828125 21.789062 119.511719 21.550781 118.941406 21.550781 C 118.476562 21.550781 117.984375 21.8125 117.496094 22.136719 L 117.496094 24.910156 L 116.730469 24.910156 L 116.730469 20.957031 L 117.496094 20.957031 Z M 123.945312 24.367188 C 124.433594 24.367188 124.894531 24.277344 125.453125 24.058594 L 125.589844 24.65625 C 125.199219 24.839844 124.527344 24.988281 123.835938 24.988281 C 122.347656 24.988281 121.652344 24.042969 121.652344 22.933594 C 121.652344 21.535156 122.640625 20.878906 123.808594 20.878906 C 125.320312 20.878906 125.929688 21.628906 125.453125 23.101562 L 122.457031 23.101562 C 122.480469 23.789062 123.066406 24.367188 123.945312 24.367188 Z M 122.503906 22.484375 L 124.765625 22.484375 C 124.949219 21.921875 124.679688 21.503906 123.824219 21.503906 C 123.238281 21.503906 122.609375 21.8125 122.503906 22.484375 Z M 128.144531 24.988281 C 127.722656 24.988281 127.058594 24.925781 126.601562 24.785156 L 126.671875 24.160156 C 127.113281 24.292969 127.652344 24.367188 128.0625 24.367188 C 128.671875 24.367188 129.15625 24.269531 129.164062 23.867188 C 129.171875 23.503906 128.789062 23.34375 128.148438 23.21875 C 126.925781 22.980469 126.625 22.523438 126.625 22.03125 C 126.625 21.171875 127.398438 20.878906 128.308594 20.878906 C 128.726562 20.878906 129.375 20.933594 129.820312 21.074219 L 129.738281 21.699219 C 129.328125 21.574219 128.800781 21.503906 128.402344 21.503906 C 127.8125 21.503906 127.472656 21.621094 127.472656 21.9375 C 127.472656 22.199219 127.589844 22.371094 128.554688 22.570312 C 129.8125 22.832031 130.007812 23.378906 130.007812 23.78125 C 130.007812 24.714844 129.226562 24.988281 128.144531 24.988281 "/>
<g clip-path="url(#clip1)" clip-rule="nonzero">
<path style=" stroke:none;fill-rule:nonzero;fill:rgb(81.347656%,11.283875%,17.282104%);fill-opacity:1;" d="M 73.542969 26.691406 L 47.429688 26.691406 L 32.910156 1.546875 L 18.394531 26.691406 L 0 26.691406 L 10.269531 8.898438 C 13.105469 3.988281 19.390625 0.00390625 24.300781 0.00390625 L 50.417969 0.00390625 L 64.933594 25.148438 L 79.453125 0.00390625 L 97.84375 0.00390625 L 87.574219 17.792969 C 84.738281 22.707031 78.457031 26.691406 73.542969 26.691406 "/>
</g>
</g>
</svg>

<svg xmlns="http://www.w3.org/2000/svg" width="176pt" height="35.587" viewBox="0 0 176 26.69"><defs><clipPath id="a"><path d="M0 0h98v26.691H0Zm0 0"/></clipPath></defs><path d="m110.512 16.016-6.032-8.953v8.953h-1.296V5.03h1.59l6.035 9v-9h1.293v10.985Zm3.492-4.098c0-2.297 1.43-4.266 4.297-4.266 2.87 0 4.297 1.97 4.297 4.266 0 2.293-1.426 4.262-4.297 4.262-2.867 0-4.297-1.97-4.297-4.262m1.281 0c0 1.754 1.016 3.23 3.016 3.23s3.015-1.476 3.015-3.23c0-1.707-1.015-3.23-3.015-3.23s-3.016 1.523-3.016 3.23m10.445-2.984c.016 0 .016.015.032.015 1.113-.738 2.18-1.297 3.558-1.297v1.18c-.953 0-2.363.43-3.59 1.184v6h-1.234v-8.2h1.234Zm11.098 5.476V9.227a6.6 6.6 0 0 0-2.441-.473c-1.657 0-3.051 1.129-3.051 3.21 0 2.118 1.394 3.184 3.082 3.184.754 0 1.492-.199 2.41-.738m1.23-9.379v10.985h-1.23v-.657l-.031-.015c-.856.62-1.774.836-2.64.836-2.688 0-4.083-1.918-4.083-4.215 0-2.41 1.477-4.313 4.149-4.313.867 0 1.754.2 2.574.508l.031-.015V5.03Zm6.036 11.051h-1.61l-3.082-8.266h1.395l2.492 7.067 2.457-7.067h1.395l2.511 7.067 2.442-7.067h1.394l-3.035 8.266h-1.605l-2.426-6.41Zm10.738-8.266h1.23v8.2h-1.23Zm4.688 1.098.035.02c1.195-.739 2.277-1.282 3.656-1.282 2.082 0 2.902 1.149 2.902 3v5.364h-1.23v-5.262c0-1.43-.688-2-2.082-2-.969 0-2.051.508-3.281 1.246v6.016h-1.227v-8.2h1.227Zm15.25 5.496V9.227a6.6 6.6 0 0 0-2.442-.473c-1.656 0-3.05 1.129-3.05 3.21 0 2.118 1.394 3.184 3.081 3.184.754 0 1.493-.199 2.41-.738M176 5.031v10.985h-1.23v-.657l-.032-.015c-.851.62-1.77.836-2.64.836-2.692 0-4.082-1.918-4.082-4.215 0-2.41 1.472-4.313 4.148-4.313.867 0 1.754.2 2.574.508l.032-.015V5.03Zm-21.164 0h1.226V6.61h-1.226Zm-40.172 14.543h.77v.766h-.77Zm-7.445 0h.765v.766h-.765Zm-2.824 0 2.015 5.336h-.883l-.492-1.367h-2.222l-.497 1.367h-.886l2.023-5.336Zm-.457.918-.88 2.38h1.75Zm3.28.465h.766v3.953h-.765Zm2.821.531c.008 0 .008.008.02.008.496-.332.976-.617 1.64-.617v.719c-.449 0-1.136.222-1.66.539v2.773h-.758v-3.953h.758Zm2.563-1.914h.765v5.336h-.765Zm2.062 1.383h.77v3.953h-.77Zm2.832.531.016.008c.511-.34 1.011-.617 1.675-.617 1.004 0 1.41.555 1.41 1.484v2.547h-.769v-2.48c0-.64-.316-.88-.887-.88-.464 0-.957.262-1.445.587v2.773h-.766v-3.953h.766Zm6.45 2.88c.488 0 .949-.09 1.507-.31l.137.598c-.39.184-1.063.332-1.754.332-1.488 0-2.184-.945-2.184-2.054 0-1.399.989-2.055 2.157-2.055 1.511 0 2.12.75 1.644 2.223h-2.996c.023.687.61 1.265 1.488 1.265m-1.442-1.884h2.262c.183-.562-.086-.98-.942-.98-.586 0-1.215.308-1.32.98m5.64 2.504c-.421 0-1.085-.062-1.542-.203l.07-.625c.441.133.98.207 1.39.207.61 0 1.094-.097 1.102-.5.008-.363-.375-.523-1.016-.648-1.222-.239-1.523-.696-1.523-1.188 0-.86.773-1.152 1.684-1.152.418 0 1.066.055 1.511.195l-.082.625a5 5 0 0 0-1.336-.195c-.59 0-.93.117-.93.433 0 .262.118.434 1.083.633 1.257.262 1.453.809 1.453 1.211 0 .934-.781 1.207-1.863 1.207" style="stroke:none;fill-rule:nonzero;fill:#100f0d;fill-opacity:1"/><g clip-path="url(#a)"><path d="M73.543 26.691H47.43L32.91 1.547 18.395 26.69H0L10.27 8.898C13.105 3.988 19.39.004 24.3.004h26.118l14.516 25.144L79.454.004h18.39l-10.27 17.789c-2.836 4.914-9.117 8.898-14.031 8.898" style="stroke:none;fill-rule:nonzero;fill:#cf1d2c;fill-opacity:1"/></g></svg>
